app/assets/images/heroicons/mini/strikethrough.svg

<svg width="20" height="20" viewBox="0 0 20 20" fill="none" xmlns="http://www.w3.org/2000/svg">
<path fill-rule="evenodd" clip-rule="evenodd" d="M11.6174 3.96284C10.4309 3.64491 9.19936 3.6404 8.20073 3.97822C7.209 4.31371 6.7106 4.88868 6.559 5.45445C6.4074 6.02022 6.55155 6.76735 7.24267 7.55376C7.77099 8.15493 8.51582 8.65446 9.37053 9.0001H17.25C17.6642 9.0001 18 9.33589 18 9.7501C18 10.1643 17.6642 10.5001 17.25 10.5001H2.75C2.33579 10.5001 2 10.1643 2 9.7501C2 9.33589 2.33579 9.0001 2.75 9.0001H6.56299C6.40539 8.85537 6.25595 8.70327 6.11594 8.54396C5.18044 7.47947 4.79805 6.23086 5.11011 5.06622C5.42218 3.90158 6.37764 3.01145 7.72006 2.55732C9.05558 2.10553 10.5966 2.13638 12.0056 2.51395C12.8621 2.74343 13.6899 3.10603 14.4148 3.5877C14.7598 3.81693 14.8537 4.28243 14.6245 4.62744C14.3953 4.97244 13.9297 5.0663 13.5847 4.83707C13.006 4.45256 12.3297 4.15369 11.6174 3.96284ZM13.526 12.086C13.8914 11.891 14.3457 12.029 14.5408 12.3945C15.0701 13.3859 15.1482 14.4574 14.7218 15.4053C14.2995 16.3443 13.432 17.0531 12.2799 17.4428C10.9444 17.8946 9.40343 17.8637 7.99434 17.4862C6.58524 17.1086 5.2353 16.3648 4.30459 15.3058C4.03116 14.9947 4.06172 14.5208 4.37286 14.2474C4.68399 13.9739 5.15788 14.0045 5.43132 14.3156C6.12724 15.1075 7.19604 15.7194 8.38256 16.0373C9.56909 16.3552 10.8006 16.3597 11.7993 16.0219C12.6519 15.7335 13.1398 15.2658 13.3538 14.79C13.5639 14.323 13.5594 13.7412 13.2175 13.1009C13.0225 12.7355 13.1606 12.2811 13.526 12.086Z" fill="black"/>
</svg>

<svg xmlns="http://www.w3.org/2000/svg" viewBox="0 0 20 20" fill="currentColor" aria-hidden="true" data-slot="icon">
  <path fill-rule="evenodd" d="M11.617 3.963c-1.186-.318-2.418-.323-3.416.015-.992.336-1.49.91-1.642 1.476-.152.566-.007 1.313.684 2.1.528.6 1.273 1.1 2.128 1.446h7.879a.75.75 0 0 1 0 1.5H2.75a.75.75 0 0 1 0-1.5h3.813a5.976 5.976 0 0 1-.447-.456C5.18 7.479 4.798 6.231 5.11 5.066c.312-1.164 1.268-2.055 2.61-2.509 1.336-.451 2.877-.42 4.286-.043.856.23 1.684.592 2.409 1.074a.75.75 0 1 1-.83 1.25 6.723 6.723 0 0 0-1.968-.875Zm1.909 8.123a.75.75 0 0 1 1.015.309c.53.99.607 2.062.18 3.01-.421.94-1.289 1.648-2.441 2.038-1.336.452-2.877.42-4.286.043-1.409-.377-2.759-1.121-3.69-2.18a.75.75 0 1 1 1.127-.99c.696.791 1.765 1.403 2.952 1.721 1.186.318 2.418.323 3.416-.015.853-.288 1.34-.756 1.555-1.232.21-.467.205-1.049-.136-1.69a.75.75 0 0 1 .308-1.014Z" clip-rule="evenodd"/>
</svg>
